X: 27665
T: More Luck To Us
R: reel
M: 4/4
K: Dmajor
|:D2 DF ADFB|AFdB AFDF|EBed e2 ef|gefd ~B3 c|
d2 DF A3 B|AFdB AFDF|GABG FGAF|1 EFGA BAFE:|2 EFGA BABc||
|:dcde dAFA|dcdB AFDF|EFGA BABd|gefd BABc|
d2 dc dAFA|dcdB AFDF|G2 BG F2 AF|1 EFGA BABc:|2 EFGA BAFE||

